lib/assets/svg/button/jp_add_to_google_wallet_wallet-button.svg

<svg fill="none" height="50" viewBox="0 0 363 50" width="363" xmlns="http://www.w3.org/2000/svg" xmlns:xlink="http://www.w3.org/1999/xlink"><linearGradient id="a" gradientUnits="userSpaceOnUse" x1="34.5703" x2="18.7309" y1="30.7864" y2="48.9133"><stop offset="0" stop-color="#4285f4"/><stop offset="1" stop-color="#1b74e8"/></linearGradient><rect fill="#1f1f1f" height="49" rx="24.5" width="362" x=".5" y=".5"/><path d="m51 22h-30v-5c0-2.7143 2.2018-5 4.8165-5h20.367c2.6147 0 4.8165 2.2857 4.8165 5z" fill="#34a853"/><path d="m51 26.0537h-30v-5c0-2.7143 2.2018-5 4.8165-5h20.367c2.6147 0 4.8165 2.2857 4.8165 5z" fill="#fbbc04"/><path d="m51 30.2468h-30v-5c0-2.7143 2.2018-5 4.8165-5h20.367c2.6147 0 4.8165 2.2857 4.8165 5z" fill="#ea4335"/><path d="m21 23.2752 19.0411 4.4037c2.1918.5505 4.6575 0 6.4384-1.3761l4.5205-3.3028v10.3211c0 2.6147-2.1918 4.6789-4.7945 4.6789h-20.411c-2.6027 0-4.7945-2.0642-4.7945-4.6789z" fill="url(#a)"/><path d="m71.4 32.32c-1.0267 0-1.9933-.1867-2.9-.56-.8933-.3733-1.6867-.8933-2.38-1.56-.6933-.68-1.24-1.4733-1.64-2.38-.3867-.92-.58-1.9133-.58-2.98s.1933-2.0533.58-2.96c.4-.92.94-1.7133 1.62-2.38.6933-.68 1.4933-1.2067 2.4-1.58s1.8733-.56 2.9-.56c1.0933 0 2.1.1933 3.02.58.9333.3867 1.7133.9267 2.34 1.62l-1.52 1.5c-.4667-.52-1.0267-.92-1.68-1.2-.64-.28-1.36-.42-2.16-.42-.9467 0-1.82.2267-2.62.68-.8.44-1.4467 1.0667-1.94 1.88-.48.8-.72 1.7467-.72 2.84s.2467 2.0467.74 2.86c.4933.8 1.14 1.4267 1.94 1.88.8.44 1.6733.66 2.62.66.8667 0 1.6533-.16 2.36-.48.7067-.3333 1.2733-.8 1.7-1.4.44-.6.7067-1.32.8-2.16h-4.9v-1.94h6.96c.08.36.12.74.12 1.14v.02c0 1.3867-.3067 2.6-.92 3.64-.6 1.0267-1.4333 1.8267-2.5 2.4s-2.28.86-3.64.86zm13.4998 0c-1.0533 0-1.98-.24-2.78-.72s-1.4266-1.1267-1.88-1.94c-.4533-.8133-.68-1.7333-.68-2.76 0-1.0133.2267-1.9267.68-2.74.4534-.8267 1.08-1.48 1.88-1.96s1.7267-.72 2.78-.72c1.04 0 1.96.24 2.76.72s1.4267 1.1333 1.88 1.96c.4534.8133.68 1.7267.68 2.74 0 1.0267-.2266 1.9467-.68 2.76-.4533.8133-1.08 1.46-1.88 1.94s-1.72.72-2.76.72zm0-1.98c.56 0 1.08-.1333 1.56-.4.48-.28.8667-.6733 1.16-1.18.3067-.52.46-1.14.46-1.86s-.1533-1.3333-.46-1.84c-.2933-.52-.68-.9133-1.16-1.18-.48-.28-1-.42-1.56-.42s-1.0866.14-1.58.42c-.48.2667-.8733.66-1.18 1.18-.2933.5067-.44 1.12-.44 1.84s.1467 1.34.44 1.86c.3067.5067.7.9 1.18 1.18.4934.2667 1.02.4 1.58.4zm12.1094 1.98c-1.0533 0-1.98-.24-2.78-.72s-1.4266-1.1267-1.88-1.94c-.4533-.8133-.68-1.7333-.68-2.76 0-1.0133.2267-1.9267.68-2.74.4534-.8267 1.08-1.48 1.88-1.96s1.7267-.72 2.78-.72c1.04 0 1.96.24 2.76.72.7998.48 1.4268 1.1333 1.8798 1.96.454.8133.68 1.7267.68 2.74 0 1.0267-.226 1.9467-.68 2.76-.453.8133-1.08 1.46-1.8798 1.94-.8.48-1.72.72-2.76.72zm0-1.98c.56 0 1.08-.1333 1.56-.4.48-.28.8667-.6733 1.16-1.18.3068-.52.4598-1.14.4598-1.86s-.153-1.3333-.4598-1.84c-.2933-.52-.68-.9133-1.16-1.18-.48-.28-1-.42-1.56-.42s-1.0866.14-1.58.42c-.48.2667-.8733.66-1.18 1.18-.2933.5067-.44 1.12-.44 1.84s.1467 1.34.44 1.86c.3067.5067.7.9 1.18 1.18.4934.2667 1.02.4 1.58.4zm11.9098 6.3c-.894 0-1.667-.1467-2.32-.44-.64-.28-1.16-.6467-1.56-1.1-.4-.44-.687-.8933-.86-1.36l2-.84c.213.5333.553.9667 1.02 1.3.48.3467 1.053.52 1.72.52.933 0 1.666-.28 2.2-.84.546-.56.82-1.3533.82-2.38v-.98h-.12c-.32.48-.767.8667-1.34 1.16-.56.28-1.2.42-1.92.42-.867 0-1.66-.22-2.38-.66s-1.3-1.0533-1.74-1.84c-.44-.8-.66-1.7333-.66-2.8 0-1.08.22-2.0133.66-2.8.44-.8 1.02-1.42 1.74-1.86s1.513-.66 2.38-.66c.72 0 1.36.1467 1.92.44.573.2933 1.02.68 1.34 1.16h.12v-1.28h2.06v9.66c0 1.1067-.22 2.0467-.66 2.82-.427.7733-1.02 1.36-1.78 1.76s-1.64.6-2.64.6zm.02-6.5c.533 0 1.026-.1267 1.48-.38.453-.2667.82-.6467 1.1-1.14.28-.5067.42-1.1133.42-1.82 0-.7333-.14-1.3467-.42-1.84-.28-.5067-.647-.8867-1.1-1.14-.454-.2533-.947-.38-1.48-.38-.534 0-1.034.1333-1.5.4-.454.2533-.82.6267-1.1 1.12s-.42 1.1067-.42 1.84c0 .72.14 1.3333.42 1.84.28.4933.646.8667 1.1 1.12.466.2533.966.38 1.5.38zm7.607 1.86v-14.32h2.16v14.32zm9.269.32c-1 0-1.894-.2333-2.68-.7-.787-.4667-1.407-1.1067-1.86-1.92-.44-.8133-.66-1.74-.66-2.78 0-.9733.213-1.8733.64-2.7.426-.8267 1.02-1.4867 1.78-1.98.773-.5067 1.66-.76 2.66-.76 1.053 0 1.946.2267 2.68.68.746.4533 1.313 1.0733 1.7 1.86.386.7867.58 1.6733.58 2.66 0 .1467-.007.28-.02.4 0 .12-.007.2133-.02.28h-7.88c.106 1.0133.46 1.7733 1.06 2.28.613.5067 1.306.76 2.08.76.693 0 1.266-.1533 1.72-.46.453-.32.813-.7133 1.08-1.18l1.78.86c-.44.8-1.04 1.4533-1.8 1.96-.76.4933-1.707.74-2.84.74zm-.1-9c-.72 0-1.334.22-1.84.66-.507.44-.847 1.0267-1.02 1.76h5.66c-.027-.3467-.14-.7067-.34-1.08s-.507-.6867-.92-.94c-.4-.2667-.914-.4-1.54-.4zm21.151-7.32h-1.9c.08.62.1 1.08.1 1.5v2.66h1.7c0-.7 0-2.2 0-2.66 0-.42.02-.88.1-1.5zm6.82 3.88-1.08-.68c-.26.08-.62.16-1.36.16h-10.6c-.7 0-1.3-.04-1.88-.08.08.42.08 1.1.08 1.52v3.52c0 .4-.02.94-.08 1.28h1.74c-.04-.3-.06-.84-.06-1.18 0-.62 0-2.76 0-3.58h11.16c-.18 1.7-.8 4.12-1.88 5.82-1.24 1.9-3.42 3.38-5.44 4.04-.64.24-1.4.44-2.06.56l1.3 1.48c3.66-1 6.42-3.04 7.9-5.66 1.12-1.9 1.7-4.4 1.98-6 .06-.38.18-.92.28-1.2zm15.4-.1h-1.7c.08.44.12.96.12 1.36.08 1.76.18 7.76.18 10.12 0 .38-.18.6-.56.6-.58 0-1.62-.08-2.44-.2l.1 1.48c.78.04 2.1.1 2.88.1.88 0 1.52-.5 1.52-1.36-.04-2.9-.14-8.98-.18-10.74 0-.46 0-.94.08-1.36zm-9.02 2.88v1.6c.48-.04 1-.06 1.52-.06h10.38c.38 0 .94.02 1.28.04v-1.58c-.28.06-.92.1-1.34.1-.82 0-9.5 0-10.34 0-.48 0-1.02-.02-1.5-.1zm-.52 7.66 1.1 1.22c3.06-1.6 6.34-4.62 7.4-6.58l-.02-1.2-.82-.02c-1.16 2.1-4.44 5.04-7.66 6.58zm20.96 1.06 1.14.98c.32-.18.64-.28.84-.34 5-1.46 9.12-3.92 11.72-7.14l-.9-1.4c-2.5 3.22-7.12 5.84-10.96 6.82 0-1.02 0-9.46 0-11.36 0-.56.08-1.32.14-1.8h-1.96c.08.38.16 1.28.16 1.82v11.44c0 .38-.04.66-.18.98zm25.22-10.88-1.48.5c.42.88 1.34 3.42 1.56 4.34l1.48-.54c-.24-.86-1.22-3.5-1.56-4.3zm7.24 1.12-1.72-.56c-.32 2.56-1.34 5.12-2.76 6.86-1.64 2.04-4.2 3.56-6.5 4.24l1.32 1.34c2.22-.84 4.66-2.4 6.52-4.74 1.42-1.8 2.3-3.96 2.82-6.16.08-.26.18-.58.32-.98zm-11.9-.12-1.48.56c.4.7 1.48 3.48 1.8 4.52l1.5-.56c-.36-1.06-1.42-3.68-1.82-4.52zm21.72 8.74c0 .74-.02 1.74-.12 2.38h1.94c-.08-.66-.12-1.74-.12-2.38 0-.94-.02-8.52-.02-11.62 0-.62.06-1.48.14-2.1h-1.96c.1.64.14 1.52.14 2.1zm1.32-8.46v1.76c2.18.68 5.92 2.1 8.2 3.32l.7-1.7c-2.22-1.08-6.26-2.62-8.9-3.38z" fill="#fff"/><path d="m251.1 18.5.02 1.62c2.18.24 6.06.24 8.2 0v-1.62c-1.98.3-6.04.38-8.22 0zm.78 8.16-1.44-.14c-.22.96-.32 1.68-.32 2.34 0 1.88 1.5 3 4.84 3 2.08 0 3.76-.16 5-.42l-.04-1.68c-1.6.38-3.16.54-4.94.54-2.74 0-3.38-.9-3.38-1.82 0-.54.1-1.1.28-1.82zm-4.58-9.7-1.78-.14c-.02.44-.08.94-.14 1.4-.24 1.66-.9 5.08-.9 8.02 0 2.72.34 5.02.74 6.44l1.42-.1c-.02-.22-.04-.5-.06-.7 0-.24.04-.62.1-.9.18-.96.92-3.06 1.42-4.48l-.84-.66c-.34.82-.8 2.02-1.14 2.92-.12-.98-.18-1.82-.18-2.78 0-2.26.62-5.82 1-7.68.08-.36.24-1 .36-1.34zm19.92 6.14h-4.26v1.4h2.8v5.68h1.46zm0 6.42h-1.36c-1.02.86-2.2 1.74-3.16 2.38l.8 1.54c1.08-.88 2.1-1.74 3.06-2.6 1.28 1.58 3.08 2.28 5.68 2.38 2.22.08 6.36.04 8.56-.04.06-.46.32-1.18.48-1.54-2.36.16-6.86.22-9.04.14-2.3-.1-4.08-.78-5.02-2.26zm-4.04-12.92c1.3.88 2.8 2.24 3.44 3.2l1.18-.98c-.7-.98-2.2-2.28-3.52-3.12zm7 .7v1.26h7.42v2.7h-7.42v1.28h8.88v-5.24zm3.26-2.16c-.16.78-.52 1.9-.82 2.66l1.38.3c.34-.68.78-1.7 1.16-2.68zm-3.98 2.16v12.84h1.46v-12.84zm.8 7.14v1.28h8.12v3.12h-8.12v1.3h9.6v-5.7zm23.84 5.94v1.46h5.44v-1.46zm-11.04-11.38v1.46h7.68v-1.46zm10.36-1.3v15.6h1.46v-14.16h3.86v14.02h1.52v-15.46zm-3.08 1.3v.36c-.14 8.56-.32 11.52-.78 12.14-.18.26-.36.32-.66.3-.38 0-1.24 0-2.18-.08.26.42.42 1.08.44 1.52.9.06 1.82.06 2.38-.02.6-.06.96-.24 1.32-.76.64-.88.78-3.8.94-12.7 0-.2 0-.76 0-.76zm-4.44-3.52c-.02 7 0 13.6-3.34 17.12.38.22.9.68 1.16 1.02 3.52-3.82 3.62-10.76 3.64-18.14zm28.64.68h-1.84c.04.18.1.74.14 1.28.06 1.1.08 5.08.08 5.96l1.52.78c-.02-1.6-.06-5.46 0-6.76 0-.24.06-1.02.1-1.26zm-10.64 2.8.04 1.54c3.02-.22 7.3-.36 10.74-.36 2.94 0 4.74.04 5.86.1l.02-1.48c-.94-.02-3.42-.02-5.86-.02-3.08 0-8.08.18-10.8.22zm10.5 5.8-1.1-.56c.32 2.14-.48 3.18-1.72 3.18-1.1 0-2.04-.72-2.04-1.98 0-1.3.98-2.12 2.04-2.12 1.08 0 1.96.76 1.96 2.56 0 3.3-2.12 5.08-5.76 5.94l1.34 1.3c4.64-1.38 5.96-4.38 5.96-7.1 0-2.3-1.18-4.02-3.5-4.02-1.9 0-3.54 1.48-3.54 3.46 0 2.18 1.62 3.36 3.3 3.36 1.82 0 3.06-1.34 3.06-4.02zm12.36-7.48.04 1.64c.44-.06.88-.08 1.34-.12 1.04-.06 5.04-.22 6.1-.28-1 .9-3.52 3-4.64 3.92-1.14.98-3.72 3.14-5.38 4.5l1.16 1.16c2.52-2.58 4.32-3.98 7.64-3.98 2.62 0 4.5 1.46 4.5 3.44 0 2.5-2.14 3.9-5.54 3.9-1.58 0-2.68-.58-2.68-1.56 0-.7.7-1.26 1.62-1.26 1.6 0 2.58 1.22 2.7 2.92l1.44-.24c-.14-2.02-1.48-3.9-4.14-3.9-1.84 0-3.08 1.24-3.08 2.6 0 1.68 1.66 2.86 4.38 2.86 4.24 0 6.9-2.1 6.9-5.32 0-2.7-2.38-4.68-5.7-4.68-.9 0-1.86.1-2.78.4 1.56-1.28 4.28-3.62 5.26-4.38.38-.3.78-.56 1.14-.8l-.92-1.18c-.22.08-.5.12-1.1.18-1.06.1-5.8.24-6.86.24-.4 0-.96-.02-1.4-.06z" fill="#fff"/><rect height="49" rx="24.5" stroke="#747775" width="362" x=".5" y=".5"/></svg>

<svg width="363" height="50" viewBox="0 0 363 50" fill="none" xmlns="http://www.w3.org/2000/svg">
<rect x="0.5" y="0.5" width="362" height="49" rx="24.5" fill="#1F1F1F"/>
<path d="M51 22H21V17C21 14.2857 23.2018 12 25.8165 12H46.1835C48.7982 12 51 14.2857 51 17V22Z" fill="#34A853"/>
<path d="M51 26.0537H21V21.0537C21 18.3394 23.2018 16.0537 25.8165 16.0537H46.1835C48.7982 16.0537 51 18.3394 51 21.0537V26.0537Z" fill="#FBBC04"/>
<path d="M51 30.2468H21V25.2468C21 22.5325 23.2018 20.2468 25.8165 20.2468H46.1835C48.7982 20.2468 51 22.5325 51 25.2468V30.2468Z" fill="#EA4335"/>
<path d="M21 23.2752L40.0411 27.6789C42.2329 28.2294 44.6986 27.6789 46.4795 26.3028L51 23V33.3211C51 35.9358 48.8082 38 46.2055 38H25.7945C23.1918 38 21 35.9358 21 33.3211V23.2752Z" fill="url(#paint0_linear_1819_24443)"/>
<path d="M71.4 32.32C70.3733 32.32 69.4067 32.1333 68.5 31.76C67.6067 31.3867 66.8133 30.8667 66.12 30.2C65.4267 29.52 64.88 28.7267 64.48 27.82C64.0933 26.9 63.9 25.9067 63.9 24.84C63.9 23.7733 64.0933 22.7867 64.48 21.88C64.88 20.96 65.42 20.1667 66.1 19.5C66.7933 18.82 67.5933 18.2933 68.5 17.92C69.4067 17.5467 70.3733 17.36 71.4 17.36C72.4933 17.36 73.5 17.5533 74.42 17.94C75.3533 18.3267 76.1333 18.8667 76.76 19.56L75.24 21.06C74.7733 20.54 74.2133 20.14 73.56 19.86C72.92 19.58 72.2 19.44 71.4 19.44C70.4533 19.44 69.58 19.6667 68.78 20.12C67.98 20.56 67.3333 21.1867 66.84 22C66.36 22.8 66.12 23.7467 66.12 24.84C66.12 25.9333 66.3667 26.8867 66.86 27.7C67.3533 28.5 68 29.1267 68.8 29.58C69.6 30.02 70.4733 30.24 71.42 30.24C72.2867 30.24 73.0733 30.08 73.78 29.76C74.4867 29.4267 75.0533 28.96 75.48 28.36C75.92 27.76 76.1867 27.04 76.28 26.2H71.38V24.26H78.34C78.42 24.62 78.46 25 78.46 25.4V25.42C78.46 26.8067 78.1533 28.02 77.54 29.06C76.94 30.0867 76.1067 30.8867 75.04 31.46C73.9733 32.0333 72.76 32.32 71.4 32.32ZM84.8998 32.32C83.8465 32.32 82.9198 32.08 82.1198 31.6C81.3198 31.12 80.6932 30.4733 80.2398 29.66C79.7865 28.8467 79.5598 27.9267 79.5598 26.9C79.5598 25.8867 79.7865 24.9733 80.2398 24.16C80.6932 23.3333 81.3198 22.68 82.1198 22.2C82.9198 21.72 83.8465 21.48 84.8998 21.48C85.9398 21.48 86.8598 21.72 87.6598 22.2C88.4598 22.68 89.0865 23.3333 89.5398 24.16C89.9932 24.9733 90.2198 25.8867 90.2198 26.9C90.2198 27.9267 89.9932 28.8467 89.5398 29.66C89.0865 30.4733 88.4598 31.12 87.6598 31.6C86.8598 32.08 85.9398 32.32 84.8998 32.32ZM84.8998 30.34C85.4598 30.34 85.9798 30.2067 86.4598 29.94C86.9398 29.66 87.3265 29.2667 87.6198 28.76C87.9265 28.24 88.0798 27.62 88.0798 26.9C88.0798 26.18 87.9265 25.5667 87.6198 25.06C87.3265 24.54 86.9398 24.1467 86.4598 23.88C85.9798 23.6 85.4598 23.46 84.8998 23.46C84.3398 23.46 83.8132 23.6 83.3198 23.88C82.8398 24.1467 82.4465 24.54 82.1398 25.06C81.8465 25.5667 81.6998 26.18 81.6998 26.9C81.6998 27.62 81.8465 28.24 82.1398 28.76C82.4465 29.2667 82.8398 29.66 83.3198 29.94C83.8132 30.2067 84.3398 30.34 84.8998 30.34ZM97.0092 32.32C95.9559 32.32 95.0292 32.08 94.2292 31.6C93.4292 31.12 92.8026 30.4733 92.3492 29.66C91.8959 28.8467 91.6692 27.9267 91.6692 26.9C91.6692 25.8867 91.8959 24.9733 92.3492 24.16C92.8026 23.3333 93.4292 22.68 94.2292 22.2C95.0292 21.72 95.9559 21.48 97.0092 21.48C98.0492 21.48 98.9692 21.72 99.7692 22.2C100.569 22.68 101.196 23.3333 101.649 24.16C102.103 24.9733 102.329 25.8867 102.329 26.9C102.329 27.9267 102.103 28.8467 101.649 29.66C101.196 30.4733 100.569 31.12 99.7692 31.6C98.9692 32.08 98.0492 32.32 97.0092 32.32ZM97.0092 30.34C97.5692 30.34 98.0892 30.2067 98.5692 29.94C99.0492 29.66 99.4359 29.2667 99.7292 28.76C100.036 28.24 100.189 27.62 100.189 26.9C100.189 26.18 100.036 25.5667 99.7292 25.06C99.4359 24.54 99.0492 24.1467 98.5692 23.88C98.0892 23.6 97.5692 23.46 97.0092 23.46C96.4492 23.46 95.9226 23.6 95.4292 23.88C94.9492 24.1467 94.5559 24.54 94.2492 25.06C93.9559 25.5667 93.8092 26.18 93.8092 26.9C93.8092 27.62 93.9559 28.24 94.2492 28.76C94.5559 29.2667 94.9492 29.66 95.4292 29.94C95.9226 30.2067 96.4492 30.34 97.0092 30.34ZM108.919 36.64C108.025 36.64 107.252 36.4933 106.599 36.2C105.959 35.92 105.439 35.5533 105.039 35.1C104.639 34.66 104.352 34.2067 104.179 33.74L106.179 32.9C106.392 33.4333 106.732 33.8667 107.199 34.2C107.679 34.5467 108.252 34.72 108.919 34.72C109.852 34.72 110.585 34.44 111.119 33.88C111.665 33.32 111.939 32.5267 111.939 31.5V30.52H111.819C111.499 31 111.052 31.3867 110.479 31.68C109.919 31.96 109.279 32.1 108.559 32.1C107.692 32.1 106.899 31.88 106.179 31.44C105.459 31 104.879 30.3867 104.439 29.6C103.999 28.8 103.779 27.8667 103.779 26.8C103.779 25.72 103.999 24.7867 104.439 24C104.879 23.2 105.459 22.58 106.179 22.14C106.899 21.7 107.692 21.48 108.559 21.48C109.279 21.48 109.919 21.6267 110.479 21.92C111.052 22.2133 111.499 22.6 111.819 23.08H111.939V21.8H113.999V31.46C113.999 32.5667 113.779 33.5067 113.339 34.28C112.912 35.0533 112.319 35.64 111.559 36.04C110.799 36.44 109.919 36.64 108.919 36.64ZM108.939 30.14C109.472 30.14 109.965 30.0133 110.419 29.76C110.872 29.4933 111.239 29.1133 111.519 28.62C111.799 28.1133 111.939 27.5067 111.939 26.8C111.939 26.0667 111.799 25.4533 111.519 24.96C111.239 24.4533 110.872 24.0733 110.419 23.82C109.965 23.5667 109.472 23.44 108.939 23.44C108.405 23.44 107.905 23.5733 107.439 23.84C106.985 24.0933 106.619 24.4667 106.339 24.96C106.059 25.4533 105.919 26.0667 105.919 26.8C105.919 27.52 106.059 28.1333 106.339 28.64C106.619 29.1333 106.985 29.5067 107.439 29.76C107.905 30.0133 108.405 30.14 108.939 30.14ZM116.546 32V17.68H118.706V32H116.546ZM125.815 32.32C124.815 32.32 123.921 32.0867 123.135 31.62C122.348 31.1533 121.728 30.5133 121.275 29.7C120.835 28.8867 120.615 27.96 120.615 26.92C120.615 25.9467 120.828 25.0467 121.255 24.22C121.681 23.3933 122.275 22.7333 123.035 22.24C123.808 21.7333 124.695 21.48 125.695 21.48C126.748 21.48 127.641 21.7067 128.375 22.16C129.121 22.6133 129.688 23.2333 130.075 24.02C130.461 24.8067 130.655 25.6933 130.655 26.68C130.655 26.8267 130.648 26.96 130.635 27.08C130.635 27.2 130.628 27.2933 130.615 27.36H122.735C122.841 28.3733 123.195 29.1333 123.795 29.64C124.408 30.1467 125.101 30.4 125.875 30.4C126.568 30.4 127.141 30.2467 127.595 29.94C128.048 29.62 128.408 29.2267 128.675 28.76L130.455 29.62C130.015 30.42 129.415 31.0733 128.655 31.58C127.895 32.0733 126.948 32.32 125.815 32.32ZM125.715 23.32C124.995 23.32 124.381 23.54 123.875 23.98C123.368 24.42 123.028 25.0067 122.855 25.74H128.515C128.488 25.3933 128.375 25.0333 128.175 24.66C127.975 24.2867 127.668 23.9733 127.255 23.72C126.855 23.4533 126.341 23.32 125.715 23.32ZM146.866 16H144.966C145.046 16.62 145.066 17.08 145.066 17.5C145.066 17.96 145.066 19.38 145.066 20.16H146.766C146.766 19.46 146.766 17.96 146.766 17.5C146.766 17.08 146.786 16.62 146.866 16ZM153.686 19.88L152.606 19.2C152.346 19.28 151.986 19.36 151.246 19.36H140.646C139.946 19.36 139.346 19.32 138.766 19.28C138.846 19.7 138.846 20.38 138.846 20.8C138.846 21.5 138.846 23.68 138.846 24.32C138.846 24.72 138.826 25.26 138.766 25.6H140.506C140.466 25.3 140.446 24.76 140.446 24.42C140.446 23.8 140.446 21.66 140.446 20.84H151.606C151.426 22.54 150.806 24.96 149.726 26.66C148.486 28.56 146.306 30.04 144.286 30.7C143.646 30.94 142.886 31.14 142.226 31.26L143.526 32.74C147.186 31.74 149.946 29.7 151.426 27.08C152.546 25.18 153.126 22.68 153.406 21.08C153.466 20.7 153.586 20.16 153.686 19.88ZM169.086 19.78H167.386C167.466 20.22 167.506 20.74 167.506 21.14C167.586 22.9 167.686 28.9 167.686 31.26C167.686 31.64 167.506 31.86 167.126 31.86C166.546 31.86 165.506 31.78 164.686 31.66L164.786 33.14C165.566 33.18 166.886 33.24 167.666 33.24C168.546 33.24 169.186 32.74 169.186 31.88C169.146 28.98 169.046 22.9 169.006 21.14C169.006 20.68 169.006 20.2 169.086 19.78ZM160.066 22.66V24.26C160.546 24.22 161.066 24.2 161.586 24.2C162.306 24.2 171.246 24.2 171.966 24.2C172.346 24.2 172.906 24.22 173.246 24.24V22.66C172.966 22.72 172.326 22.76 171.906 22.76C171.086 22.76 162.406 22.76 161.566 22.76C161.086 22.76 160.546 22.74 160.066 22.66ZM159.546 30.32L160.646 31.54C163.706 29.94 166.986 26.92 168.046 24.96L168.026 23.76L167.206 23.74C166.046 25.84 162.766 28.78 159.546 30.32ZM180.506 31.38L181.646 32.36C181.966 32.18 182.286 32.08 182.486 32.02C187.486 30.56 191.606 28.1 194.206 24.88L193.306 23.48C190.806 26.7 186.186 29.32 182.346 30.3C182.346 29.28 182.346 20.84 182.346 18.94C182.346 18.38 182.426 17.62 182.486 17.14H180.526C180.606 17.52 180.686 18.42 180.686 18.96C180.686 20.86 180.686 29.14 180.686 30.4C180.686 30.78 180.646 31.06 180.506 31.38ZM205.726 20.5L204.246 21C204.666 21.88 205.586 24.42 205.806 25.34L207.286 24.8C207.046 23.94 206.066 21.3 205.726 20.5ZM212.966 21.62L211.246 21.06C210.926 23.62 209.906 26.18 208.486 27.92C206.846 29.96 204.286 31.48 201.986 32.16L203.306 33.5C205.526 32.66 207.966 31.1 209.826 28.76C211.246 26.96 212.126 24.8 212.646 22.6C212.726 22.34 212.826 22.02 212.966 21.62ZM201.066 21.5L199.586 22.06C199.986 22.76 201.066 25.54 201.386 26.58L202.886 26.02C202.526 24.96 201.466 22.34 201.066 21.5ZM222.786 30.24C222.786 30.98 222.766 31.98 222.666 32.62H224.606C224.526 31.96 224.486 30.88 224.486 30.24C224.486 29.3 224.466 21.72 224.466 18.62C224.466 18 224.526 17.14 224.606 16.52H222.646C222.746 17.16 222.786 18.04 222.786 18.62C222.786 20.28 222.786 29.12 222.786 30.24ZM224.106 21.78V23.54C226.286 24.22 230.026 25.64 232.306 26.86L233.006 25.16C230.786 24.08 226.746 22.54 224.106 21.78Z" fill="white"/>
<path d="M251.1 18.5L251.12 20.12C253.3 20.36 257.18 20.36 259.32 20.12V18.5C257.34 18.8 253.28 18.88 251.1 18.5ZM251.88 26.66L250.44 26.52C250.22 27.48 250.12 28.2 250.12 28.86C250.12 30.74 251.62 31.86 254.96 31.86C257.04 31.86 258.72 31.7 259.96 31.44L259.92 29.76C258.32 30.14 256.76 30.3 254.98 30.3C252.24 30.3 251.6 29.4 251.6 28.48C251.6 27.94 251.7 27.38 251.88 26.66ZM247.3 16.96L245.52 16.82C245.5 17.26 245.44 17.76 245.38 18.22C245.14 19.88 244.48 23.3 244.48 26.24C244.48 28.96 244.82 31.26 245.22 32.68L246.64 32.58C246.62 32.36 246.6 32.08 246.58 31.88C246.58 31.64 246.62 31.26 246.68 30.98C246.86 30.02 247.6 27.92 248.1 26.5L247.26 25.84C246.92 26.66 246.46 27.86 246.12 28.76C246 27.78 245.94 26.94 245.94 25.98C245.94 23.72 246.56 20.16 246.94 18.3C247.02 17.94 247.18 17.3 247.3 16.96ZM267.22 23.1H262.96V24.5H265.76V30.18H267.22V23.1ZM267.22 29.52H265.86C264.84 30.38 263.66 31.26 262.7 31.9L263.5 33.44C264.58 32.56 265.6 31.7 266.56 30.84C267.84 32.42 269.64 33.12 272.24 33.22C274.46 33.3 278.6 33.26 280.8 33.18C280.86 32.72 281.12 32 281.28 31.64C278.92 31.8 274.42 31.86 272.24 31.78C269.94 31.68 268.16 31 267.22 29.52ZM263.18 16.6C264.48 17.48 265.98 18.84 266.62 19.8L267.8 18.82C267.1 17.84 265.6 16.54 264.28 15.7L263.18 16.6ZM270.18 17.3V18.56H277.6V21.26H270.18V22.54H279.06V17.3H270.18ZM273.44 15.14C273.28 15.92 272.92 17.04 272.62 17.8L274 18.1C274.34 17.42 274.78 16.4 275.16 15.42L273.44 15.14ZM269.46 17.3V30.14H270.92V17.3H269.46ZM270.26 24.44V25.72H278.38V28.84H270.26V30.14H279.86V24.44H270.26ZM294.1 30.38V31.84H299.54V30.38H294.1ZM283.06 19V20.46H290.74V19H283.06ZM293.42 17.7V33.3H294.88V19.14H298.74V33.16H300.26V17.7H293.42ZM290.34 19V19.36C290.2 27.92 290.02 30.88 289.56 31.5C289.38 31.76 289.2 31.82 288.9 31.8C288.52 31.8 287.66 31.8 286.72 31.72C286.98 32.14 287.14 32.8 287.16 33.24C288.06 33.3 288.98 33.3 289.54 33.22C290.14 33.16 290.5 32.98 290.86 32.46C291.5 31.58 291.64 28.66 291.8 19.76C291.8 19.56 291.8 19 291.8 19H290.34ZM285.9 15.48C285.88 22.48 285.9 29.08 282.56 32.6C282.94 32.82 283.46 33.28 283.72 33.62C287.24 29.8 287.34 22.86 287.36 15.48H285.9ZM314.54 16.16H312.7C312.74 16.34 312.8 16.9 312.84 17.44C312.9 18.54 312.92 22.52 312.92 23.4L314.44 24.18C314.42 22.58 314.38 18.72 314.44 17.42C314.44 17.18 314.5 16.4 314.54 16.16ZM303.9 18.96L303.94 20.5C306.96 20.28 311.24 20.14 314.68 20.14C317.62 20.14 319.42 20.18 320.54 20.24L320.56 18.76C319.62 18.74 317.14 18.74 314.7 18.74C311.62 18.74 306.62 18.92 303.9 18.96ZM314.4 24.76L313.3 24.2C313.62 26.34 312.82 27.38 311.58 27.38C310.48 27.38 309.54 26.66 309.54 25.4C309.54 24.1 310.52 23.28 311.58 23.28C312.66 23.28 313.54 24.04 313.54 25.84C313.54 29.14 311.42 30.92 307.78 31.78L309.12 33.08C313.76 31.7 315.08 28.7 315.08 25.98C315.08 23.68 313.9 21.96 311.58 21.96C309.68 21.96 308.04 23.44 308.04 25.42C308.04 27.6 309.66 28.78 311.34 28.78C313.16 28.78 314.4 27.44 314.4 24.76ZM326.76 17.28L326.8 18.92C327.24 18.86 327.68 18.84 328.14 18.8C329.18 18.74 333.18 18.58 334.24 18.52C333.24 19.42 330.72 21.52 329.6 22.44C328.46 23.42 325.88 25.58 324.22 26.94L325.38 28.1C327.9 25.52 329.7 24.12 333.02 24.12C335.64 24.12 337.52 25.58 337.52 27.56C337.52 30.06 335.38 31.46 331.98 31.46C330.4 31.46 329.3 30.88 329.3 29.9C329.3 29.2 330 28.64 330.92 28.64C332.52 28.64 333.5 29.86 333.62 31.56L335.06 31.32C334.92 29.3 333.58 27.42 330.92 27.42C329.08 27.42 327.84 28.66 327.84 30.02C327.84 31.7 329.5 32.88 332.22 32.88C336.46 32.88 339.12 30.78 339.12 27.56C339.12 24.86 336.74 22.88 333.42 22.88C332.52 22.88 331.56 22.98 330.64 23.28C332.2 22 334.92 19.66 335.9 18.9C336.28 18.6 336.68 18.34 337.04 18.1L336.12 16.92C335.9 17 335.62 17.04 335.02 17.1C333.96 17.2 329.22 17.34 328.16 17.34C327.76 17.34 327.2 17.32 326.76 17.28Z" fill="white"/>
<rect x="0.5" y="0.5" width="362" height="49" rx="24.5" stroke="#747775"/>
<defs>
<linearGradient id="paint0_linear_1819_24443" x1="34.5703" y1="30.7864" x2="18.7309" y2="48.9133" gradientUnits="userSpaceOnUse">
<stop stop-color="#4285F4"/>
<stop offset="1" stop-color="#1B74E8"/>
</linearGradient>
</defs>
</svg>
